src/wp-content/themes/aquaban/assets/images/paket1.svg

<svg width="54" height="50" viewBox="0 0 54 50" fill="none" xmlns="http://www.w3.org/2000/svg">
<path d="M48.5673 0.128496C50.0551 -0.370714 51.7974 0.641969 52.1112 2.17471C52.5007 3.65259 51.4474 5.29175 49.9443 5.55836C48.5443 5.88861 47.017 4.93847 46.6725 3.54726C46.2545 2.1385 47.1531 0.521281 48.5673 0.128496ZM48.9832 1.84556C48.2722 2.1012 48.1021 3.15228 48.6968 3.61748C49.2618 4.14522 50.3008 3.78754 50.4139 3.01953C50.607 2.23725 49.7128 1.50215 48.9832 1.84556Z" fill="#00AFEA"/>
<path d="M9.07925 1.8752C10.3147 0.982103 11.9889 0.73963 13.4262 1.24981C14.384 1.57238 15.2091 2.22409 15.7994 3.03929C16.9591 2.77597 18.2417 3.07549 19.1194 3.89069C20.0926 4.74867 20.5095 6.13878 20.2396 7.40052C24.2366 7.39503 28.2336 7.40271 32.2305 7.39723C32.3545 5.77671 33.0095 4.19131 34.1111 2.98991C35.318 1.79071 37.0471 1.15545 38.7433 1.24981C40.1795 1.2531 41.631 1.7205 42.7194 2.67503C43.9515 3.7316 44.7185 5.24898 45.0509 6.82231C45.9791 7.26008 46.7691 7.96995 47.31 8.84219C48.6726 8.78733 50.0518 9.2273 51.0897 10.1193C52.1199 10.9861 52.8934 12.2171 53.0372 13.5721C53.2006 14.8195 52.9253 16.1098 52.2977 17.1982C52.3865 17.5855 52.4293 17.9827 52.4162 18.3809C52.3997 18.9712 52.4655 19.5703 52.3317 20.1507C52.0859 21.261 51.2499 22.2188 50.1791 22.6039C49.3858 22.9188 48.519 22.7806 47.6896 22.8113C48.4927 23.8788 49.2947 24.9475 50.1023 26.0128C50.3085 26.2871 50.5663 26.5735 50.5422 26.9432C50.5466 32.2469 50.5455 37.5517 50.5433 42.8554C50.5806 43.3063 50.235 43.664 49.8269 43.7891C49.7643 44.9554 49.9849 46.1699 49.58 47.2956C49.0468 48.8371 47.5129 49.965 45.8782 49.9936C43.9823 50.0012 42.0853 50.0034 40.1894 49.9925C38.311 49.9508 36.6049 48.4422 36.3317 46.5847C36.2154 45.6598 36.301 44.725 36.2736 43.7957C29.582 43.7946 22.8904 43.7968 16.1988 43.7946C16.1406 45.0552 16.3897 46.3916 15.84 47.5776C15.2245 48.994 13.7488 49.9815 12.2018 49.9957C10.3739 50.0023 8.54603 49.9968 6.71925 49.9979C5.72741 49.999 4.74654 49.6172 4.01035 48.9545C3.18199 48.2216 2.67729 47.1398 2.65315 46.0339C2.63779 45.2845 2.65425 44.5352 2.64547 43.7847C2.23843 43.6673 1.89172 43.3096 1.92683 42.8631C1.92135 37.5934 1.92793 32.3237 1.92354 27.054C1.91037 26.7929 1.96743 26.5263 2.13749 26.3211C3.01741 25.1504 3.90282 23.9842 4.78056 22.8113C3.96427 22.7773 3.11835 22.9166 2.33278 22.6358C1.37605 22.3143 0.582804 21.5474 0.227322 20.6038C-0.117188 19.7228 0.039707 18.7617 0.013375 17.8411C0.0177637 16.7363 0.985463 15.796 2.07495 15.7423C0.858192 14.5529 0.172464 12.8436 0.244877 11.1419C0.300832 9.40394 1.14455 7.71101 2.50065 6.62043C3.76787 5.57593 5.4619 5.09867 7.09009 5.28409C7.23821 3.93348 7.96563 2.65857 9.07925 1.8752ZM11.4809 2.7617C10.0469 2.91421 8.84884 4.21325 8.83019 5.65712C8.80276 6.06307 8.9827 6.52388 8.71609 6.88375C8.478 7.2513 7.98428 7.33359 7.59479 7.18438C6.07741 6.72137 4.33511 7.17889 3.23794 8.32323C2.39752 9.17683 1.9389 10.3892 2.00254 11.5862C2.0541 12.8501 2.69704 14.0691 3.69985 14.836C4.7246 15.6347 6.1169 15.9387 7.37974 15.6271C8.02487 15.4855 8.60418 15.1542 9.13191 14.768C9.47313 14.509 9.92846 14.6199 10.2488 14.8536C11.4985 15.6655 13.3121 15.3363 14.2107 14.1514C15.1202 13.0465 15.0698 11.302 14.0988 10.251C13.7795 9.85926 13.1574 9.64422 13.1574 9.05943C13.1234 8.47903 13.7071 8.20803 14.0724 7.8734C14.4104 7.55302 14.9754 7.60788 15.2837 7.94142C15.8104 8.48342 16.6508 8.66665 17.3563 8.40003C18.1868 8.10819 18.7321 7.19096 18.5829 6.322C18.4655 5.41465 17.6174 4.68065 16.7024 4.6971C16.2756 4.6598 15.8992 4.8935 15.4955 4.98346C15.0851 5.0449 14.7176 4.75964 14.5618 4.39758C14.011 3.27518 12.7185 2.58945 11.4809 2.7617ZM36.1606 3.61749C34.8297 4.37454 34.1681 5.92703 34.0046 7.39174C36.1694 7.39613 38.3352 7.38516 40.4999 7.39613C42.116 7.39832 43.6312 8.58875 44.013 10.1588C44.4661 12.0218 44.905 13.887 45.3515 15.751C46.9183 15.7521 48.485 15.7532 50.0529 15.7499C50.3743 15.7445 50.6925 15.7938 51.0063 15.8662C51.3837 14.9819 51.4715 13.9517 51.127 13.0432C50.6585 11.8912 49.6294 10.9498 48.4038 10.6832C47.9002 10.5582 47.3791 10.6075 46.8689 10.6591C46.4728 10.714 46.1206 10.4287 45.9758 10.0776C45.5929 9.25253 44.8721 8.60411 44.0163 8.298C43.6718 8.19267 43.4139 7.88876 43.381 7.52779C43.1802 6.26605 42.6536 5.01748 41.7122 4.12987C40.9497 3.40574 39.9008 3.0338 38.8585 3.01076C37.9259 2.94493 36.9659 3.12925 36.1606 3.61749ZM16.2031 10.252C16.7188 11.381 16.7989 12.7064 16.3765 13.8771C15.8937 15.2771 14.7209 16.4148 13.3055 16.8526C12.1107 17.2399 10.7744 17.1148 9.65746 16.5465C9.31514 16.7418 8.96185 16.9184 8.60089 17.0742C8.286 18.4007 7.96782 19.7272 7.65403 21.0547C20.041 21.0547 32.4269 21.0558 44.8128 21.0536C43.9845 17.5877 43.1616 14.1196 42.3266 10.6536C42.1346 9.78246 41.2909 9.12855 40.4 9.1494C33.3683 9.14172 26.3366 9.15379 19.3059 9.14391C18.4984 9.95033 17.3431 10.3859 16.2031 10.252ZM1.77103 17.9432C1.78091 18.7035 1.65254 19.5231 2.02119 20.2242C2.2483 20.6652 2.67949 21.0635 3.20393 21.0525C4.08495 21.0613 4.96707 21.0514 5.8481 21.0547C6.13336 19.8731 6.41314 18.6903 6.6973 17.5087C5.19967 17.5098 3.70204 17.5021 2.20551 17.512C1.96523 17.4922 1.7469 17.6996 1.77103 17.9432ZM45.7717 17.5087C46.0548 18.6903 46.3357 19.8731 46.6198 21.0547C47.4701 21.0525 48.3194 21.0591 49.1697 21.0547C49.7292 21.08 50.1955 20.6565 50.4237 20.1781C50.7627 19.488 50.6399 18.6936 50.6508 17.952C50.6816 17.6853 50.4303 17.4714 50.1736 17.5098C48.7067 17.5043 47.2397 17.5087 45.7717 17.5087ZM6.97269 22.8124C6.13117 23.9425 5.27648 25.0638 4.43385 26.1939C6.12568 26.387 7.8208 26.5603 9.51153 26.76C10.2236 26.8489 10.872 27.3009 11.2001 27.9394C12.1151 29.6993 13.0247 31.4624 13.9331 33.2256C14.1306 33.5745 14.0746 34.0528 13.7652 34.3195C13.5535 34.5268 13.2452 34.5553 12.9643 34.5521C9.86921 34.5477 6.7752 34.551 3.6801 34.5499C3.679 35.4397 3.6801 36.3295 3.6801 37.2193C8.21798 37.2193 12.7548 37.2215 17.2926 37.2193C17.8566 35.5439 18.4117 33.8663 18.9812 32.1932C19.0931 31.8113 19.4793 31.5546 19.8743 31.5809C24.1214 31.5809 28.3696 31.5787 32.6167 31.582C33.0106 31.5612 33.3837 31.83 33.4934 32.2085C34.0573 33.8773 34.6136 35.5494 35.1742 37.2193C39.7132 37.2193 44.2522 37.2226 48.79 37.2171C48.7878 36.3295 48.7889 35.4408 48.79 34.5521C45.6258 34.5444 42.4616 34.5575 39.2974 34.5455C38.6632 34.5839 38.1892 33.8279 38.5063 33.275C39.4071 31.5107 40.3232 29.7553 41.2306 27.9954C41.5663 27.3163 42.2553 26.8269 43.0113 26.7534C44.6855 26.5658 46.3598 26.3815 48.033 26.1939C47.1871 25.066 46.3379 23.9414 45.4931 22.8135C32.6529 22.808 19.8128 22.8102 6.97269 22.8124ZM3.68449 32.7966C6.36816 32.7911 9.05182 32.7966 11.7355 32.7944C11.064 31.4888 10.3871 30.1864 9.71561 28.8819C9.62673 28.691 9.47752 28.5034 9.24821 28.4968C7.3951 28.2741 5.5365 28.0876 3.6812 27.8791C3.6812 29.5183 3.67461 31.1574 3.68449 32.7966ZM43.2373 28.4968C43.0069 28.499 42.8478 28.6778 42.7589 28.8731C42.0853 30.181 41.4072 31.4866 40.7336 32.7944C43.4183 32.7955 46.1031 32.7955 48.7889 32.7944C48.79 31.1563 48.7889 29.5183 48.7889 27.8802C46.938 28.0843 45.0882 28.2927 43.2373 28.4968ZM20.4514 33.3364C20.0147 34.63 19.5802 35.9246 19.1457 37.2193C23.8712 37.2204 28.5967 37.2215 33.3233 37.2182C32.8888 35.9246 32.4544 34.6311 32.0221 33.3375C28.1655 33.3342 24.309 33.3364 20.4514 33.3364ZM3.6801 42.0402C5.58807 42.0391 7.49494 42.0424 9.40291 42.0391C9.40182 41.0177 9.40401 39.9973 9.40182 38.9758C7.49604 38.9725 5.59136 38.9791 3.68559 38.9725C3.67242 39.9951 3.68339 41.0177 3.6801 42.0402ZM11.1584 38.9758C11.1573 39.9962 11.1595 41.0176 11.1573 42.038C21.2084 42.0413 31.2595 42.0424 41.3107 42.038C41.3085 41.0176 41.3107 39.9962 41.3096 38.9758C31.2595 38.9747 21.2095 38.9758 11.1584 38.9758ZM43.0661 42.0402C44.9741 42.0391 46.8821 42.0424 48.79 42.0391C48.7878 41.0177 48.79 39.9962 48.7889 38.9758C46.8821 38.9736 44.9763 38.978 43.0705 38.9736C43.0595 39.9951 43.0672 41.0177 43.0661 42.0402ZM4.40313 43.7968C4.41301 44.5823 4.37899 45.369 4.41849 46.1546C4.50188 47.2627 5.49481 48.2074 6.60514 48.2403C8.25089 48.2644 9.89883 48.2414 11.5457 48.2513C12.0383 48.2535 12.5529 48.2699 13.0126 48.0647C13.8234 47.7323 14.406 46.9094 14.4345 46.0317C14.4543 45.2867 14.4367 44.5417 14.4411 43.7968C11.0947 43.7957 7.74839 43.7957 4.40313 43.7968ZM38.0356 46.035C38.0642 46.9401 38.6862 47.785 39.5344 48.0955C39.9118 48.248 40.3243 48.2524 40.7259 48.2524C42.4067 48.2436 44.0887 48.2578 45.7695 48.2458C46.9194 48.2556 47.9705 47.2912 48.0527 46.1436C48.089 45.3613 48.0582 44.5779 48.0681 43.7968C44.7229 43.7946 41.3765 43.7968 38.0312 43.7957C38.0334 44.5417 38.0203 45.2889 38.0356 46.035Z" fill="#00AFEA"/>
</svg>

<svg width="54" height="50" fill="none" xmlns="http://www.w3.org/2000/svg"><path d="M48.567.128c1.488-.499 3.23.514 3.544 2.047.39 1.478-.664 3.117-2.167 3.383-1.4.33-2.927-.62-3.272-2.01-.417-1.41.481-3.027 1.895-3.42zm.416 1.718c-.71.255-.88 1.306-.286 1.771.565.528 1.604.17 1.717-.597.193-.783-.701-1.518-1.43-1.174zM9.08 1.875a4.8 4.8 0 014.346-.625c.958.322 1.783.974 2.373 1.79 1.16-.264 2.443.035 3.32.85.974.859 1.39 2.249 1.12 3.51 3.998-.005 7.995.003 11.991-.003.125-1.62.78-3.206 1.881-4.407 1.207-1.2 2.936-1.835 4.632-1.74 1.436.003 2.888.47 3.976 1.425 1.233 1.057 2 2.574 2.332 4.147a5.369 5.369 0 012.259 2.02c1.363-.055 2.742.385 3.78 1.277 1.03.867 1.803 2.098 1.947 3.453a5.81 5.81 0 01-.74 3.626c.09.387.132.785.12 1.183-.017.59.048 1.19-.085 1.77a3.438 3.438 0 01-2.153 2.453c-.793.315-1.66.177-2.49.207.804 1.068 1.606 2.137 2.413 3.202.207.274.464.56.44.93.005 5.304.003 10.609.001 15.912.038.451-.308.809-.716.934-.063 1.166.158 2.38-.247 3.507-.533 1.541-2.067 2.669-3.702 2.698-1.896.007-3.793.01-5.689-.002-1.878-.041-3.584-1.55-3.857-3.407-.117-.925-.031-1.86-.058-2.79-6.692 0-13.384.002-20.075 0-.058 1.26.19 2.597-.359 3.783-.615 1.416-2.091 2.403-3.638 2.418-1.828.006-3.656 0-5.483.002a4.082 4.082 0 01-2.709-1.043 4.066 4.066 0 01-1.357-2.921c-.015-.75.001-1.499-.008-2.25-.407-.117-.753-.474-.718-.92-.006-5.27 0-10.54-.003-15.81-.014-.261.043-.528.213-.733.88-1.17 1.766-2.337 2.644-3.51-.817-.034-1.663.106-2.448-.175a3.461 3.461 0 01-2.106-2.032c-.344-.881-.187-1.842-.214-2.763.005-1.105.972-2.045 2.062-2.099a6.15 6.15 0 01-1.83-4.6A6.132 6.132 0 012.5 6.62C3.768 5.576 5.46 5.1 7.09 5.284c.147-1.35.875-2.625 1.988-3.409zm2.4.887c-1.433.152-2.631 1.451-2.65 2.895-.027.406.153.867-.114 1.227-.238.367-.732.45-1.121.3-1.518-.463-3.26-.005-4.357 1.14a4.377 4.377 0 00-1.235 3.262 4.372 4.372 0 005.377 4.04c.645-.14 1.224-.472 1.752-.858.341-.259.796-.148 1.117.086 1.25.812 3.063.482 3.962-.703.91-1.104.859-2.849-.112-3.9-.32-.392-.942-.607-.942-1.192-.034-.58.55-.851.915-1.186.338-.32.903-.265 1.212.068a1.969 1.969 0 002.072.459c.83-.292 1.376-1.209 1.227-2.078-.117-.907-.966-1.641-1.88-1.625-.427-.037-.804.197-1.207.286-.41.062-.778-.223-.934-.585-.551-1.123-1.843-1.809-3.081-1.636zm24.68.855c-1.33.758-1.992 2.31-2.155 3.775 2.164.004 4.33-.007 6.495.004 1.616.002 3.131 1.193 3.513 2.763.453 1.863.892 3.728 1.339 5.592 1.566.001 3.133.002 4.7-.001.322-.005.64.044.954.116.378-.884.465-1.914.121-2.823-.469-1.152-1.498-2.093-2.723-2.36-.504-.125-1.025-.075-1.535-.024-.396.055-.748-.23-.893-.581a3.458 3.458 0 00-1.96-1.78.9.9 0 01-.635-.77c-.2-1.262-.727-2.51-1.669-3.398-.762-.724-1.811-1.096-2.854-1.12-.932-.065-1.892.12-2.697.607zm-19.957 6.635c.516 1.129.596 2.454.174 3.625a4.8 4.8 0 01-3.071 2.976c-1.195.387-2.532.262-3.649-.306a10.71 10.71 0 01-1.056.527c-.315 1.327-.633 2.653-.947 3.98 12.387 0 24.773.002 37.159 0-.829-3.466-1.651-6.934-2.486-10.4-.192-.872-1.036-1.525-1.927-1.505-7.032-.007-14.063.005-21.094-.005-.808.806-1.963 1.242-3.103 1.108zM1.771 17.943c.01.76-.118 1.58.25 2.281.227.441.658.84 1.183.828.88.01 1.763 0 2.644.003.285-1.182.565-2.365.85-3.546-1.498 0-2.996-.007-4.492.003a.405.405 0 00-.435.431zm44-.434c.284 1.181.565 2.364.849 3.546.85-.003 1.7.004 2.55 0 .56.025 1.026-.398 1.254-.877.339-.69.216-1.484.227-2.226.03-.267-.22-.48-.477-.442-1.467-.006-2.934-.001-4.402-.001zM6.974 22.812c-.842 1.13-1.697 2.252-2.54 3.382 1.693.193 3.388.366 5.079.566.712.089 1.36.54 1.688 1.18.915 1.76 1.825 3.522 2.733 5.286.198.349.142.827-.168 1.093-.212.208-.52.236-.8.233-3.096-.004-6.19-.001-9.285-.002v2.67c4.538 0 9.075.002 13.613 0 .564-1.676 1.119-3.354 1.688-5.027a.88.88 0 01.893-.612c4.247 0 8.496-.002 12.743.001a.882.882 0 01.876.627c.564 1.668 1.12 3.34 1.681 5.01 4.54 0 9.078.004 13.616-.002-.002-.887-.001-1.776 0-2.665-3.164-.008-6.328.005-9.493-.007-.634.039-1.108-.717-.79-1.27.9-1.764 1.816-3.52 2.724-5.28a2.27 2.27 0 011.78-1.242c1.674-.187 3.349-.372 5.022-.56-.846-1.127-1.695-2.252-2.54-3.38-12.84-.005-25.68-.003-38.52 0zm-3.289 9.985c2.684-.006 5.368 0 8.051-.003-.671-1.305-1.348-2.608-2.02-3.912-.088-.191-.237-.379-.467-.385-1.853-.223-3.711-.41-5.567-.618 0 1.64-.006 3.278.003 4.918zm39.553-4.3c-.23.002-.39.18-.478.376-.674 1.308-1.352 2.614-2.025 3.921 2.684.002 5.37.002 8.055 0V27.88c-1.851.204-3.7.413-5.552.617zm-22.786 4.84c-.436 1.293-.87 2.588-1.305 3.882 4.725.001 9.45.002 14.177 0-.434-1.294-.869-2.588-1.3-3.882-3.858-.003-7.714 0-11.572 0zM3.681 42.04c1.907 0 3.814.002 5.722 0-.001-1.022.001-2.043-.001-3.064-1.906-.004-3.81.003-5.716-.004-.014 1.023-.003 2.046-.006 3.068zm7.477-3.064c0 1.02.002 2.042 0 3.062 10.05.003 20.102.004 30.153 0-.002-1.02 0-2.042-.001-3.062H11.158zm31.908 3.064c1.908 0 3.816.002 5.724 0-.002-1.022 0-2.044-.001-3.064-1.907-.002-3.813.002-5.718-.002-.011 1.021-.004 2.044-.005 3.066zM4.403 43.797c.01.785-.024 1.572.015 2.358.084 1.108 1.077 2.052 2.187 2.085 1.646.024 3.294.001 4.94.011.493.003 1.008.019 1.468-.186.81-.333 1.393-1.156 1.421-2.033.02-.745.003-1.49.007-2.235H4.403zm33.633 2.238c.028.905.65 1.75 1.498 2.06.378.153.79.157 1.192.157 1.68-.008 3.363.006 5.044-.006 1.15.01 2.2-.955 2.283-2.102.036-.783.005-1.566.015-2.347-3.345-.002-6.691 0-10.037-.001.002.746-.01 1.493.005 2.239z" fill="#00AFEA"/></svg>
